public/images/logos/bluetees.svg

<?xml version="1.0" encoding="UTF-8"?>
<svg id="Layer_1" data-name="Layer 1" xmlns="http://www.w3.org/2000/svg" viewBox="0 0 641 250">
  <defs>
    <style>
      .cls-1 {
        fill: #9A9A9A;
        stroke-width: 0px;
      }
    </style>
  </defs>
  <path class="cls-1" d="m627.24,56.55c-17.42,7.4-29.9,26.58-29.47,45.37.11,4.73.39,9.46.53,14.2.23,7.11.34,14.24-1.42,21.2-1.75,6.96-5.45,12.52-12.35,15.26-3.08,1.22-6.5,1.57-9.33-.63-2.99-2.31-2.62-5.76-2.09-9.02.42-2.5,1.46-4.82,2.74-6.99,3.57-6.01,8.39-10.74,14.77-13.67,2.89-1.33,2.94-2.88,1.17-5.11-3.61-4.58-9.91-5.6-14.68-2.24-3.51,2.49-6.47,5.6-9.41,8.76-10.55,11.31-22.08,21.46-35.84,28.79-4.48,2.39-9.17,4.16-14.35,4.23-3.71.05-5.8-2.05-5.52-5.46.5-6.11,2.21-11.93,6.79-16.45-.81,3.7.42,5.46,3.98,5.69,2.14.13,4.16-.5,6.01-1.42,18.43-9.15,33.59-22.04,44.76-39.42,1.35-2.1,2.39-4.45,3.27-6.79,3.12-8.32-1.47-14.35-10.3-13.5-7.03.68-13.57,2.99-19.78,6.35-15.21,8.23-26.64,20.45-36.86,34.15-12.03,16.11-27.12,28.88-44.52,38.91-4.26,2.47-8.88,4.14-13.89,4.3-4.48.14-6.72-2.11-6.21-6.55.59-5.12,2.59-9.76,5.62-14.4,1.33,4.74,4.42,5.35,8.14,4.38,4.49-1.18,8.53-3.38,12.4-5.87,9.41-6.05,17.62-13.52,25.51-21.39,5.45-5.41,9.56-11.67,12.63-18.66,1.75-3.96,2.44-8.03-.45-11.79-2.73-3.56-6.62-3.46-10.55-2.92-8.24,1.11-15.75,4.18-22.68,8.63-20.44,13.15-34.95,31.3-44.71,53.39-1.26,2.86-2.09,5.85-2.55,8.96-1.92,12.89,5.35,20.73,18.28,19.69,11.65-.94,21.45-6.4,30.96-12.59,5.94-3.86,11.37-8.42,17.08-13.28.1,2.24.1,3.98.28,5.69.93,8.64,6.31,13.66,15.02,13.83,2.64.06,5.33-.21,7.95-.69,10.6-1.91,19.62-7.33,28.35-13.28,3.4-2.31,6.63-4.86,10.05-7.37,2.45,12.2,9.81,18.17,21.45,17.61,18.91-.91,34.48-16.44,35.2-35.32.39-10.5.45-21.03.72-31.55.2-8.09,2.15-15.42,8.32-21.32,5.43-5.2,11.54-9.23,18.33-12.3v-4.44c-4.16-6.13-7.55-7.37-13.32-4.92Zm-107.36,74.86c8.32-12.69,17.91-24.25,30.13-33.44,2.84-2.14,5.85-4.04,9.31-5.02,1.26-.35,2.75-.91,3.75.3,1.12,1.38.2,2.83-.53,4.1-2.23,3.85-4.94,7.36-8.06,10.53-10.52,10.68-21.75,20.38-35.6,26.61-.54-1.28.42-2.18,1.01-3.08Zm-31.19-30.41c2.24-1.35,5.52-3.67,7.61-1.13,1.85,2.24-.93,4.92-2.49,6.94-9.89,12.82-21.89,23.25-36.03,31.2-1.72.97-3.62,1.64-5.45,2.45,9.43-15.83,20.44-29.96,36.36-39.46Z"/>
  <path class="cls-1" d="m29.36,250c-3.33-1.16-6.8-2.04-9.96-3.55-7.47-3.56-11.06-10.54-9.5-17.72,1.61-7.41,9.45-14.08,16.84-14.29,1.95-.06,4.07-.09,5.11,1.89,1.1,2.1-.45,3.56-1.77,5.03-2.99,3.33-2.9,6.14.46,9.13,4.02,3.57,8.98,4.89,14.1,3.93,21.57-4.05,39.73-14.13,53.57-31.41,1.95-2.43,3.3-5.26,4.29-8.24,1.98-5.99-.05-9.76-6.22-11.27-5.59-1.37-11.2-.7-16.77.25-4.54.78-8.92,2.13-13.14,4.02-1.14.51-2.42,1.68-3.62.35-1.02-1.13-.44-2.54.02-3.79,2.29-6.25,6.14-11.43,12.4-13.79,7.83-2.96,15.03-7,22.13-11.26,23.69-14.24,45.99-30.35,65.4-50.18,8.74-8.93,16.57-18.57,21.76-30.09,5.14-11.42,1.64-17.09-11.01-17.71-10.95-.53-21.56,1.64-31.98,4.6-36.94,10.49-71.48,26.03-102.14,49.46-7.2,5.5-13.81,11.7-18.96,19.23-3.19,4.66-6.23,9.46-5.26,15.57.36,2.3-1,2.71-2.93,2.7-5.08,0-9.11-2.01-12.18-6.03v-7.12c5.89-17.18,18.16-29.31,32.4-39.46,40-28.52,84.11-47.09,133.06-53.42,8.26-1.07,16.58-.92,24.74,1.18,13.53,3.47,18.64,12.27,14.9,25.76-2.05,7.39-6.03,13.81-10.49,19.96-6.9,9.52-14.93,18.02-23.52,26-19.6,18.21-40.66,34.5-63.66,48.23-.73.44-1.41.96-2.27,1.55,16.59,5.8,20.31,14.77,12.73,30.53-4.12,8.56-10.27,15.59-17.47,21.64-16.22,13.65-34.12,24.03-55.35,27.71-.22.04-.39.39-.59.6-5.04,0-10.08,0-15.12,0Z"/>
  <path class="cls-1" d="m353.24,147.1c-.13-1.66-.28-3.4-1.86-4.26-1.84-.99-3.08.49-4.23,1.57-3.42,3.27-6.74,6.68-10.15,9.96-10.39,9.98-20.93,19.74-33.8,26.53-4.49,2.38-9.13,4.33-14.32,4.4-4.43.08-6.26-1.79-6.01-6.25.26-4.86,2.38-9.1,4.78-13.52,4.74,4.16,6.42,4.83,11.89,2.19,18.53-8.97,33.61-22,44.8-39.35,1.36-2.1,2.43-4.43,3.32-6.77,3.22-8.47-1.67-14.66-10.62-13.59-7.47.91-14.37,3.43-20.88,7.13-13.81,7.82-24.93,18.64-33.91,31.54-11.06,15.88-25.06,28.77-39.78,41.02-1.31,1.07-2.48,2.58-4.55,2.39-.79-2.13.42-3.81,1.21-5.47,11.02-23.23,24.28-45.11,40.04-65.45.77-.99,2.47-1.76,1.71-3.28-.74-1.5-2.5-1.43-3.98-1.41-6.78.11-12.23,3.04-16.71,8.03-7.26,8.08-13.15,17.13-19.08,26.19-10.64,16.2-23.67,30.34-38.82,42.48-1.82,1.46-4.2,4.24-6.49,2.31-1.99-1.66.2-4.43,1.18-6.43,10.97-22.59,23.85-44,39.35-63.82.75-.97,2.47-1.77,1.62-3.28-.78-1.41-2.48-1.5-3.98-1.43-6.39.25-11.75,2.75-16.08,7.45-8.71,9.42-16.05,19.88-21.96,31.17-4.49,8.58-10.4,15.75-17.39,22.27-6.18,5.76-12.38,11.49-19,16.76-.99.78-1.77,2.05-3.64,1.87.26-7.02,3.23-13.11,6.43-19.07,10.34-19.26,23.03-36.95,36.61-54.02,17.11-21.5,35.85-41.46,56.52-59.59,2.15-1.9,5.35-3.86,3.61-7.27-1.74-3.42-5.36-2.48-8.39-1.98-2.79.47-5.43,1.53-7.67,3.33-2.77,2.23-5.6,4.4-8.18,6.83-28.81,27.17-54.13,57.26-75.52,90.61-6.01,9.37-11.27,19.17-14.91,29.74-2.03,5.9-3.57,11.95-2.39,18.29.97,5.15,3.07,6.79,8.3,6.52,2.99-.15,5.81-1.06,8.52-2.34,6.78-3.2,12.62-7.71,18.13-12.72.92-.82,1.47-2.29,3.2-2.13-.09,1.21-.2,2.38-.23,3.55-.1,7.07,2.89,10,10.04,9.81,4.42-.11,8.39-1.69,12.23-3.67,6.78-3.51,12.54-8.39,18.08-13.57.86-.79,1.42-2.2,3.12-2.03-.1,1.02-.21,1.9-.29,2.78-.97,10.53,4.03,14.62,14.22,11.56,1.84-.55,3.6-1.4,5.31-2.26,7.36-3.71,13.57-8.96,19.42-14.69,1.07-1.06,1.77-2.78,3.71-2.77,1.32,12.16,7.8,17.2,19.95,15.71,6.11-.74,11.86-2.57,17.33-5.33,19.12-9.67,34.51-23.85,48.17-40.1,1.51-1.8,2.21-3.79,2.01-6.14Zm-29.52-22.4c2.2-1.51,4.62-2.67,7.25-3.27,1.14-.25,2.44-.53,3.23.68.64.98.14,2-.29,2.96-1.48,3.27-3.69,6.11-6.08,8.72-9.23,10.1-19.33,19.21-31.36,25.94-1.85,1.03-3.65,2.59-6.82,2.03,9.49-14.55,19.99-27.42,34.07-37.05Z"/>
  <path class="cls-1" d="m561.35.04c8.92-.02,17.84-.03,26.77-.04,2.22.68,3.96,1.99,5.12,4.01,2.04,3.55.68,6.9-3.28,7.88-1.27.31-2.64.31-3.96.33-69.16,1.07-134.26,17.31-194.34,52.15-12.97,7.52-25.13,16.23-36.71,25.75-2.78,2.28-5.33,4.76-6.7,8.14-.72,1.76-.87,3.77-3.6,3.64-2.72-.13-4.96-.92-6.3-3.4-1.26-2.32-1.3-4.82-.82-7.36,1-5.3,3.8-9.54,7.57-13.29,12.5-12.47,27.14-22,42.47-30.47,42.11-23.29,87.25-37.36,134.86-43.77,12.93-1.74,25.91-2.87,38.93-3.57Z"/>
  <path class="cls-1" d="m364.76,196.96c.31-4.44,2-9.66,3.95-14.78,6.41-16.83,15.33-32.37,25.06-47.44,20.04-31.04,42.28-60.43,66.92-87.97,3.26-3.64,6.67-7.16,10.23-10.5,4.58-4.29,14.37-5.07,19.61-1.82,1.89,1.17,3.02,2.4.83,4.46-20.94,19.67-38.14,42.52-55.41,65.29-15.58,20.54-30.33,41.69-42.81,64.3-6.66,12.06-13.02,24.29-14.87,38.27-.47,3.54-3.16,4.7-6.62,3.3-3.97-1.6-6.92-6.75-6.88-13.12Z"/>
  <path class="cls-1" d="m599.24,203.28c4.67-1.65,9.73-1.05,14.14-3.5-2.49-2.12-5.64-1.92-8.59-2.21-31.33-3.17-62.75-2.49-94.15-1.7-38.52.97-76.96,3.44-115.37,6.37-1.42.11-4.25,1.81-4.2-.97.04-2.39-.59-6.15,4.11-6.47,14.04-.96,28.05-2.31,42.09-3.34,43.59-3.18,87.2-6.16,130.92-6.77,16.14-.23,32.31-.69,48.31,2.19,4.1.74,8.13,1.91,11.3,4.82,3.95,3.63,3.08,10.1-1.9,11.59-8.77,2.62-17.74,2.21-26.66,0Z"/>
  <path class="cls-1" d="m120.59,241.94c-5.73-.75-10.55-2.14-15-4.63-1.39-.78-3.18-1.64-2.84-3.56.29-1.63,2.07-1.96,3.48-2.36,12.26-3.56,24.8-5.88,37.36-8,48.39-8.16,97.12-13.75,145.91-18.81,19.75-2.05,39.53-3.88,59.29-5.82,3.54-.35,6.19,2.56,5.2,6-.54,1.89-2.49,1.18-3.78,1.31-13.56,1.38-27.16,2.48-40.71,3.96-59.24,6.48-118.35,13.79-176.26,28.46-4.44,1.12-8.83,2.41-12.65,3.45Z"/>
  <path class="cls-1" d="m512.79,219.59q5.1-.25,4.38,5.14c-1.01,7.53-2.13,8.91-8.11,10.04-9.48,1.78-14.89-2.98-14.38-12.65.56-10.71,7.04-17.14,15.97-15.89,3.18.45,5.6,2,6.83,4.98.5,1.22,1.97,3.08.28,3.88-1.65.78-4.43,1.52-5.6-.62-1.28-2.34-2.69-3.45-5.22-2.9-2.65.58-3.77,2.67-4.5,5.02-.98,3.15-1.37,6.4-.76,9.64.61,3.22,4.02,4.57,6.92,3.02,1.46-.78,1.4-2.14,1.65-3.41.34-1.68-.91-1.56-1.92-1.54-1.36.02-2.3-.18-2.1-1.93.19-1.62.5-2.92,2.57-2.79,1.33.08,2.66.01,4,.01Z"/>
  <path class="cls-1" d="m539.13,206.35c-4.25-1.98-8.49-1.31-12.13,1.57-5.25,4.16-6.63,10.01-6.18,16.33.3,4.19,2.05,7.9,6.29,9.43,4.52,1.64,8.81.74,12.4-2.54,4-3.65,5.2-8.47,5.42-13.69-.15-4.6-1.14-8.93-5.81-11.11Zm-1.91,17.46c-.99,2.97-2.58,5.65-6.21,5.09-3.82-.57-3.36-3.87-3.5-6.23.08-3.55.4-6.63,2.14-9.35,1.2-1.89,2.97-2.92,5.26-2.49,2.53.47,3.06,2.52,3.25,4.65.24,2.83-.04,5.62-.93,8.32Z"/>
  <path class="cls-1" d="m581.59,216.31c1.52.99,5.27-2.62,4.98,2.24-.12,1.96-.81,3.08-2.95,2.86-.44-.05-.89.01-1.33.03-6.67.22-6.63.23-7.72,7.14-.32,2,.16,4.54-3.42,4.5-2.8-.04-4.03-.41-3.46-3.64,1.28-7.28,2.31-14.61,3.24-21.95.29-2.28,1.2-2.96,3.39-2.93,4.14.05,8.29-.2,12.43-.24,1.18-.01,3-.58,2.71,1.69-.21,1.64.03,3.76-2.74,3.61-1.62-.09-3.28.29-4.88.09-3.5-.44-5.34.8-5.2,4.47.17,4.44,3.72.35,4.95,2.14Z"/>
  <path class="cls-1" d="m554.79,233.19q-8.64.35-7.38-8.03c.85-5.69,1.85-11.36,2.43-17.08.4-3.86,3.1-2.87,5.22-2.87,2.99,0,1.55,2.22,1.39,3.54-.66,5.27-1.36,10.53-2.27,15.76-.46,2.62-.08,3.95,2.95,3.51,1.59-.23,3.24-.14,4.86-.12,1.37.02,3.16-.54,2.89,1.99-.2,1.9-.46,3.5-3.02,3.33-2.35-.15-4.72-.03-7.08-.03Z"/>
  <path class="cls-1" d="m40.08,208.29c-6.33-.04-10.32-5.87-7.75-11.55,5.61-12.35,13.3-23.44,21.3-34.3,21.73-29.51,45.07-57.67,70.7-83.91,5.88-6.02,12.42-7.57,20.21-5.48,1.87.5,4.05,1.08,4.53,3.14.5,2.14-1.86,2.75-3.12,3.88-12.45,11.27-23.38,23.98-34.35,36.62-19.04,21.95-37.71,44.2-54.19,68.19-4.28,6.23-8.51,12.5-11.54,19.47-1.11,2.56-2.91,4.06-5.82,3.95Z"/>
  <path class="cls-1" d="m518.81,134.52s.04-.03.06-.03c.01.03.03.06.04.1-.04-.03-.09-.08-.1-.08Z"/>
</svg>

<?xml version="1.0" encoding="UTF-8" standalone="no"?>
<!DOCTYPE svg PUBLIC "-//W3C//DTD SVG 1.1//EN" "http://www.w3.org/Graphics/SVG/1.1/DTD/svg11.dtd">
<svg width="100%" height="100%" viewBox="0 0 641 250" version="1.1" xmlns="http://www.w3.org/2000/svg" xmlns:xlink="http://www.w3.org/1999/xlink" xml:space="preserve" xmlns:serif="http://www.serif.com/" style="fill-rule:evenodd;clip-rule:evenodd;stroke-linejoin:round;stroke-miterlimit:2;">
    <path d="M627.24,56.55C609.82,63.95 597.34,83.13 597.77,101.92C597.88,106.65 598.16,111.38 598.3,116.12C598.53,123.23 598.64,130.36 596.88,137.32C595.13,144.28 591.43,149.84 584.53,152.58C581.45,153.8 578.03,154.15 575.2,151.95C572.21,149.64 572.58,146.19 573.11,142.93C573.53,140.43 574.57,138.11 575.85,135.94C579.42,129.93 584.24,125.2 590.62,122.27C593.51,120.94 593.56,119.39 591.79,117.16C588.18,112.58 581.88,111.56 577.11,114.92C573.6,117.41 570.64,120.52 567.7,123.68C557.15,134.99 545.62,145.14 531.86,152.47C527.38,154.86 522.69,156.63 517.51,156.7C513.8,156.75 511.71,154.65 511.99,151.24C512.49,145.13 514.2,139.31 518.78,134.79C517.97,138.49 519.2,140.25 522.76,140.48C524.9,140.61 526.92,139.98 528.77,139.06C547.2,129.91 562.36,117.02 573.53,99.64C574.88,97.54 575.92,95.19 576.8,92.85C579.92,84.53 575.33,78.5 566.5,79.35C559.47,80.03 552.93,82.34 546.72,85.7C531.51,93.93 520.08,106.15 509.86,119.85C497.83,135.96 482.74,148.73 465.34,158.76C461.08,161.23 456.46,162.9 451.45,163.06C446.97,163.2 444.73,160.95 445.24,156.51C445.83,151.39 447.83,146.75 450.86,142.11C452.19,146.85 455.28,147.46 459,146.49C463.49,145.31 467.53,143.11 471.4,140.62C480.81,134.57 489.02,127.1 496.91,119.23C502.36,113.82 506.47,107.56 509.54,100.57C511.29,96.61 511.98,92.54 509.09,88.78C506.36,85.22 502.47,85.32 498.54,85.86C490.3,86.97 482.79,90.04 475.86,94.49C455.42,107.64 440.91,125.79 431.15,147.88C429.89,150.74 429.06,153.73 428.6,156.84C426.68,169.73 433.95,177.57 446.88,176.53C458.53,175.59 468.33,170.13 477.84,163.94C483.78,160.08 489.21,155.52 494.92,150.66C495.02,152.9 495.02,154.64 495.2,156.35C496.13,164.99 501.51,170.01 510.22,170.18C512.86,170.24 515.55,169.97 518.17,169.49C528.77,167.58 537.79,162.16 546.52,156.21C549.92,153.9 553.15,151.35 556.57,148.84C559.02,161.04 566.38,167.01 578.02,166.45C596.93,165.54 612.5,150.01 613.22,131.13C613.61,120.63 613.67,110.1 613.94,99.58C614.14,91.49 616.09,84.16 622.26,78.26C627.69,73.06 633.8,69.03 640.59,65.96L640.59,61.52C636.43,55.39 633.04,54.15 627.27,56.6L627.24,56.55ZM519.88,131.41C528.2,118.72 537.79,107.16 550.01,97.97C552.85,95.83 555.86,93.93 559.32,92.95C560.58,92.6 562.07,92.04 563.07,93.25C564.19,94.63 563.27,96.08 562.54,97.35C560.31,101.2 557.6,104.71 554.48,107.88C543.96,118.56 532.73,128.26 518.88,134.49C518.34,133.21 519.3,132.31 519.89,131.41L519.88,131.41ZM488.69,101C490.93,99.65 494.21,97.33 496.3,99.87C498.15,102.11 495.37,104.79 493.81,106.81C483.92,119.63 471.92,130.06 457.78,138.01C456.06,138.98 454.16,139.65 452.33,140.46C461.76,124.63 472.77,110.5 488.69,101Z" style="fill:rgb(154,154,154);fill-rule:nonzero;"/>
    <path d="M29.36,250C26.03,248.84 22.56,247.96 19.4,246.45C11.93,242.89 8.34,235.91 9.9,228.73C11.51,221.32 19.35,214.65 26.74,214.44C28.69,214.38 30.81,214.35 31.85,216.33C32.95,218.43 31.4,219.89 30.08,221.36C27.09,224.69 27.18,227.5 30.54,230.49C34.56,234.06 39.52,235.38 44.64,234.42C66.21,230.37 84.37,220.29 98.21,203.01C100.16,200.58 101.51,197.75 102.5,194.77C104.48,188.78 102.45,185.01 96.28,183.5C90.69,182.13 85.08,182.8 79.51,183.75C74.97,184.53 70.59,185.88 66.37,187.77C65.23,188.28 63.95,189.45 62.75,188.12C61.73,186.99 62.31,185.58 62.77,184.33C65.06,178.08 68.91,172.9 75.17,170.54C83,167.58 90.2,163.54 97.3,159.28C120.99,145.04 143.29,128.93 162.7,109.1C171.44,100.17 179.27,90.53 184.46,79.01C189.6,67.59 186.1,61.92 173.45,61.3C162.5,60.77 151.89,62.94 141.47,65.9C104.53,76.39 69.99,91.93 39.33,115.36C32.13,120.86 25.52,127.06 20.37,134.59C17.18,139.25 14.14,144.05 15.11,150.16C15.47,152.46 14.11,152.87 12.18,152.86C7.1,152.86 3.07,150.85 0,146.83L0,139.71C5.89,122.53 18.16,110.4 32.4,100.25C72.4,71.73 116.51,53.16 165.46,46.83C173.72,45.76 182.04,45.91 190.2,48.01C203.73,51.48 208.84,60.28 205.1,73.77C203.05,81.16 199.07,87.58 194.61,93.73C187.71,103.25 179.68,111.75 171.09,119.73C151.49,137.94 130.43,154.23 107.43,167.96C106.7,168.4 106.02,168.92 105.16,169.51C121.75,175.31 125.47,184.28 117.89,200.04C113.77,208.6 107.62,215.63 100.42,221.68C84.2,235.33 66.3,245.71 45.07,249.39C44.85,249.43 44.68,249.78 44.48,249.99L29.36,249.99L29.36,250Z" style="fill:rgb(154,154,154);fill-rule:nonzero;"/>
    <path d="M353.24,147.1C353.11,145.44 352.96,143.7 351.38,142.84C349.54,141.85 348.3,143.33 347.15,144.41C343.73,147.68 340.41,151.09 337,154.37C326.61,164.35 316.07,174.11 303.2,180.9C298.71,183.28 294.07,185.23 288.88,185.3C284.45,185.38 282.62,183.51 282.87,179.05C283.13,174.19 285.25,169.95 287.65,165.53C292.39,169.69 294.07,170.36 299.54,167.72C318.07,158.75 333.15,145.72 344.34,128.37C345.7,126.27 346.77,123.94 347.66,121.6C350.88,113.13 345.99,106.94 337.04,108.01C329.57,108.92 322.67,111.44 316.16,115.14C302.35,122.96 291.23,133.78 282.25,146.68C271.19,162.56 257.19,175.45 242.47,187.7C241.16,188.77 239.99,190.28 237.92,190.09C237.13,187.96 238.34,186.28 239.13,184.62C250.15,161.39 263.41,139.51 279.17,119.17C279.94,118.18 281.64,117.41 280.88,115.89C280.14,114.39 278.38,114.46 276.9,114.48C270.12,114.59 264.67,117.52 260.19,122.51C252.93,130.59 247.04,139.64 241.11,148.7C230.47,164.9 217.44,179.04 202.29,191.18C200.47,192.64 198.09,195.42 195.8,193.49C193.81,191.83 196,189.06 196.98,187.06C207.95,164.47 220.83,143.06 236.33,123.24C237.08,122.27 238.8,121.47 237.95,119.96C237.17,118.55 235.47,118.46 233.97,118.53C227.58,118.78 222.22,121.28 217.89,125.98C209.18,135.4 201.84,145.86 195.93,157.15C191.44,165.73 185.53,172.9 178.54,179.42C172.36,185.18 166.16,190.91 159.54,196.18C158.55,196.96 157.77,198.23 155.9,198.05C156.16,191.03 159.13,184.94 162.33,178.98C172.67,159.72 185.36,142.03 198.94,124.96C216.05,103.46 234.79,83.5 255.46,65.37C257.61,63.47 260.81,61.51 259.07,58.1C257.33,54.68 253.71,55.62 250.68,56.12C247.89,56.59 245.25,57.65 243.01,59.45C240.24,61.68 237.41,63.85 234.83,66.28C206.02,93.45 180.7,123.54 159.31,156.89C153.3,166.26 148.04,176.06 144.4,186.63C142.37,192.53 140.83,198.58 142.01,204.92C142.98,210.07 145.08,211.71 150.31,211.44C153.3,211.29 156.12,210.38 158.83,209.1C165.61,205.9 171.45,201.39 176.96,196.38C177.88,195.56 178.43,194.09 180.16,194.25C180.07,195.46 179.96,196.63 179.93,197.8C179.83,204.87 182.82,207.8 189.97,207.61C194.39,207.5 198.36,205.92 202.2,203.94C208.98,200.43 214.74,195.55 220.28,190.37C221.14,189.58 221.7,188.17 223.4,188.34C223.3,189.36 223.19,190.24 223.11,191.12C222.14,201.65 227.14,205.74 237.33,202.68C239.17,202.13 240.93,201.28 242.64,200.42C250,196.71 256.21,191.46 262.06,185.73C263.13,184.67 263.83,182.95 265.77,182.96C267.09,195.12 273.57,200.16 285.72,198.67C291.83,197.93 297.58,196.1 303.05,193.34C322.17,183.67 337.56,169.49 351.22,153.24C352.73,151.44 353.43,149.45 353.23,147.1L353.24,147.1ZM323.72,124.7C325.92,123.19 328.34,122.03 330.97,121.43C332.11,121.18 333.41,120.9 334.2,122.11C334.84,123.09 334.34,124.11 333.91,125.07C332.43,128.34 330.22,131.18 327.83,133.79C318.6,143.89 308.5,153 296.47,159.73C294.62,160.76 292.82,162.32 289.65,161.76C299.14,147.21 309.64,134.34 323.72,124.71L323.72,124.7Z" style="fill:rgb(154,154,154);fill-rule:nonzero;"/>
    <path d="M561.35,0.04C570.27,0.02 579.19,0.01 588.12,0C590.34,0.68 592.08,1.99 593.24,4.01C595.28,7.56 593.92,10.91 589.96,11.89C588.69,12.2 587.32,12.2 586,12.22C516.84,13.29 451.74,29.53 391.66,64.37C378.69,71.89 366.53,80.6 354.95,90.12C352.17,92.4 349.62,94.88 348.25,98.26C347.53,100.02 347.38,102.03 344.65,101.9C341.93,101.77 339.69,100.98 338.35,98.5C337.09,96.18 337.05,93.68 337.53,91.14C338.53,85.84 341.33,81.6 345.1,77.85C357.6,65.38 372.24,55.85 387.57,47.38C429.68,24.09 474.82,10.02 522.43,3.61C535.36,1.87 548.34,0.74 561.36,0.04L561.35,0.04Z" style="fill:rgb(154,154,154);fill-rule:nonzero;"/>
    <path d="M364.76,196.96C365.07,192.52 366.76,187.3 368.71,182.18C375.12,165.35 384.04,149.81 393.77,134.74C413.81,103.7 436.05,74.31 460.69,46.77C463.95,43.13 467.36,39.61 470.92,36.27C475.5,31.98 485.29,31.2 490.53,34.45C492.42,35.62 493.55,36.85 491.36,38.91C470.42,58.58 453.22,81.43 435.95,104.2C420.37,124.74 405.62,145.89 393.14,168.5C386.48,180.56 380.12,192.79 378.27,206.77C377.8,210.31 375.11,211.47 371.65,210.07C367.68,208.47 364.73,203.32 364.77,196.95L364.76,196.96Z" style="fill:rgb(154,154,154);fill-rule:nonzero;"/>
    <path d="M599.24,203.28C603.91,201.63 608.97,202.23 613.38,199.78C610.89,197.66 607.74,197.86 604.79,197.57C573.46,194.4 542.04,195.08 510.64,195.87C472.12,196.84 433.68,199.31 395.27,202.24C393.85,202.35 391.02,204.05 391.07,201.27C391.11,198.88 390.48,195.12 395.18,194.8C409.22,193.84 423.23,192.49 437.27,191.46C480.86,188.28 524.47,185.3 568.19,184.69C584.33,184.46 600.5,184 616.5,186.88C620.6,187.62 624.63,188.79 627.8,191.7C631.75,195.33 630.88,201.8 625.9,203.29C617.13,205.91 608.16,205.5 599.24,203.29L599.24,203.28Z" style="fill:rgb(154,154,154);fill-rule:nonzero;"/>
    <path d="M120.59,241.94C114.86,241.19 110.04,239.8 105.59,237.31C104.2,236.53 102.41,235.67 102.75,233.75C103.04,232.12 104.82,231.79 106.23,231.39C118.49,227.83 131.03,225.51 143.59,223.39C191.98,215.23 240.71,209.64 289.5,204.58C309.25,202.53 329.03,200.7 348.79,198.76C352.33,198.41 354.98,201.32 353.99,204.76C353.45,206.65 351.5,205.94 350.21,206.07C336.65,207.45 323.05,208.55 309.5,210.03C250.26,216.51 191.15,223.82 133.24,238.49C128.8,239.61 124.41,240.9 120.59,241.94Z" style="fill:rgb(154,154,154);fill-rule:nonzero;"/>
    <path d="M512.79,219.59C516.19,219.423 517.65,221.137 517.17,224.73C516.16,232.26 515.04,233.64 509.06,234.77C499.58,236.55 494.17,231.79 494.68,222.12C495.24,211.41 501.72,204.98 510.65,206.23C513.83,206.68 516.25,208.23 517.48,211.21C517.98,212.43 519.45,214.29 517.76,215.09C516.11,215.87 513.33,216.61 512.16,214.47C510.88,212.13 509.47,211.02 506.94,211.57C504.29,212.15 503.17,214.24 502.44,216.59C501.46,219.74 501.07,222.99 501.68,226.23C502.29,229.45 505.7,230.8 508.6,229.25C510.06,228.47 510,227.11 510.25,225.84C510.59,224.16 509.34,224.28 508.33,224.3C506.97,224.32 506.03,224.12 506.23,222.37C506.42,220.75 506.73,219.45 508.8,219.58C510.13,219.66 511.46,219.59 512.8,219.59L512.79,219.59Z" style="fill:rgb(154,154,154);fill-rule:nonzero;"/>
    <path d="M539.13,206.35C534.88,204.37 530.64,205.04 527,207.92C521.75,212.08 520.37,217.93 520.82,224.25C521.12,228.44 522.87,232.15 527.11,233.68C531.63,235.32 535.92,234.42 539.51,231.14C543.51,227.49 544.71,222.67 544.93,217.45C544.78,212.85 543.79,208.52 539.12,206.34L539.13,206.35ZM537.22,223.81C536.23,226.78 534.64,229.46 531.01,228.9C527.19,228.33 527.65,225.03 527.51,222.67C527.59,219.12 527.91,216.04 529.65,213.32C530.85,211.43 532.62,210.4 534.91,210.83C537.44,211.3 537.97,213.35 538.16,215.48C538.4,218.31 538.12,221.1 537.23,223.8L537.22,223.81Z" style="fill:rgb(154,154,154);fill-rule:nonzero;"/>
    <path d="M581.59,216.31C583.11,217.3 586.86,213.69 586.57,218.55C586.45,220.51 585.76,221.63 583.62,221.41C583.18,221.36 582.73,221.42 582.29,221.44C575.62,221.66 575.66,221.67 574.57,228.58C574.25,230.58 574.73,233.12 571.15,233.08C568.35,233.04 567.12,232.67 567.69,229.44C568.97,222.16 570,214.83 570.93,207.49C571.22,205.21 572.13,204.53 574.32,204.56C578.46,204.61 582.61,204.36 586.75,204.32C587.93,204.31 589.75,203.74 589.46,206.01C589.25,207.65 589.49,209.77 586.72,209.62C585.1,209.53 583.44,209.91 581.84,209.71C578.34,209.27 576.5,210.51 576.64,214.18C576.81,218.62 580.36,214.53 581.59,216.32L581.59,216.31Z" style="fill:rgb(154,154,154);fill-rule:nonzero;"/>
    <path d="M554.79,233.19C549.03,233.423 546.57,230.747 547.41,225.16C548.26,219.47 549.26,213.8 549.84,208.08C550.24,204.22 552.94,205.21 555.06,205.21C558.05,205.21 556.61,207.43 556.45,208.75C555.79,214.02 555.09,219.28 554.18,224.51C553.72,227.13 554.1,228.46 557.13,228.02C558.72,227.79 560.37,227.88 561.99,227.9C563.36,227.92 565.15,227.36 564.88,229.89C564.68,231.79 564.42,233.39 561.86,233.22C559.51,233.07 557.14,233.19 554.78,233.19L554.79,233.19Z" style="fill:rgb(154,154,154);fill-rule:nonzero;"/>
    <path d="M40.08,208.29C33.75,208.25 29.76,202.42 32.33,196.74C37.94,184.39 45.63,173.3 53.63,162.44C75.36,132.93 98.7,104.77 124.33,78.53C130.21,72.51 136.75,70.96 144.54,73.05C146.41,73.55 148.59,74.13 149.07,76.19C149.57,78.33 147.21,78.94 145.95,80.07C133.5,91.34 122.57,104.05 111.6,116.69C92.56,138.64 73.89,160.89 57.41,184.88C53.13,191.11 48.9,197.38 45.87,204.35C44.76,206.91 42.96,208.41 40.05,208.3L40.08,208.29Z" style="fill:rgb(154,154,154);fill-rule:nonzero;"/>
    <path d="M518.81,134.52C518.81,134.52 518.85,134.49 518.87,134.49C518.88,134.52 518.9,134.55 518.91,134.59C518.87,134.56 518.82,134.51 518.81,134.51L518.81,134.52Z" style="fill:rgb(154,154,154);fill-rule:nonzero;"/>
</svg>
